src/assets/filled/FolderOpen.svg

<?xml version="1.0" encoding="UTF-8"?>
<svg width="24" height="24" viewBox="0 0 24 24" xmlns="http://www.w3.org/2000/svg">
 <path d="m21.06 11.82-0.16-0.22c-0.28-0.34-0.61-0.61-0.99-0.81-0.51-0.29-1.09-0.44-1.69-0.44h-12.45c-0.6 0-1.17 0.15-1.69 0.44-0.39 0.21-0.74 0.5-1.03 0.86-0.57 0.73-0.84 1.63-0.75 2.53l0.37 4.67c0.13 1.41 0.3 3.15 3.47 3.15h11.72c3.17 0 3.33-1.74 3.47-3.16l0.37-4.65c0.09-0.84-0.13-1.68-0.64-2.37zm-6.67 5.52h-4.79c-0.39 0-0.7-0.32-0.7-0.7s0.31-0.7 0.7-0.7h4.79c0.39 0 0.7 0.32 0.7 0.7 0 0.39-0.31 0.7-0.7 0.7z"/>
 <path d="m20.561 8.5964c0.0376 0.38285-0.3777 0.63918-0.7425 0.51705-0.5048-0.16899-1.0361-0.25348-1.5886-0.25348h-12.46c-0.55684 0-1.1051 0.09012-1.6167 0.26194-0.36039 0.12104-0.77334-0.12687-0.77334-0.50705v-1.9549c0-3.57 1.09-4.66 4.66-4.66h1.18c1.43 0 1.88 0.46 2.46 1.21l1.2 1.6c0.25 0.34 0.26 0.36 0.7 0.36h2.38c3.1257 0 4.347 0.83724 4.6011 3.4264z"/>
</svg>

<svg width="24" height="24" viewBox="0 0 24 24"  xmlns="http://www.w3.org/2000/svg">
<path d="M21.06 11.8201L20.9 11.6001C20.62 11.2601 20.29 10.9901 19.91 10.7901C19.4 10.5001 18.82 10.3501 18.22 10.3501H5.76995C5.16995 10.3501 4.59995 10.5001 4.07995 10.7901C3.68995 11.0001 3.33995 11.2901 3.04995 11.6501C2.47995 12.3801 2.20995 13.2801 2.29995 14.1801L2.66995 18.8501C2.79995 20.2601 2.96995 22.0001 6.13995 22.0001H17.86C21.03 22.0001 21.19 20.2601 21.33 18.8401L21.7 14.1901C21.79 13.3501 21.57 12.5101 21.06 11.8201ZM14.39 17.3401H9.59995C9.20995 17.3401 8.89995 17.0201 8.89995 16.6401C8.89995 16.2601 9.20995 15.9401 9.59995 15.9401H14.39C14.78 15.9401 15.09 16.2601 15.09 16.6401C15.09 17.0301 14.78 17.3401 14.39 17.3401Z" />
<path d="M20.561 8.59643C20.5986 8.97928 20.1833 9.23561 19.8185 9.11348C19.3137 8.94449 18.7824 8.86 18.2299 8.86H5.76988C5.21304 8.86 4.66478 8.95012 4.15322 9.12194C3.79283 9.24298 3.37988 8.99507 3.37988 8.61489V6.66C3.37988 3.09 4.46988 2 8.03988 2H9.21988C10.6499 2 11.0999 2.46 11.6799 3.21L12.8799 4.81C13.1299 5.15 13.1399 5.17 13.5799 5.17H15.9599C19.0856 5.17 20.3069 6.00724 20.561 8.59643Z" />
</svg>
